src/assets/icons/send.svg

<svg width="16" height="16" viewBox="0 0 16 16" fill="none" xmlns="http://www.w3.org/2000/svg">
<path d="M15.3829 6.97934L1.5427 0.111682C1.35456 0.0162468 1.1439 -0.0191582 0.936806 0.00984658C0.729707 0.0388514 0.535247 0.130994 0.377482 0.274874C0.0494956 0.569526 -0.0756572 1.02284 0.04518 1.45802L1.89658 8.00383L0.0494955 14.5406C-0.0756573 14.9757 0.0494955 15.4291 0.381798 15.7237C0.539593 15.8674 0.733772 15.9597 0.940667 15.9895C1.14756 16.0193 1.35824 15.9852 1.54701 15.8914L15.3829 9.03284C15.7626 8.84245 16 8.4526 16 8.00836C16 7.56411 15.7626 7.17427 15.3829 6.98388V6.97934ZM1.42618 14.4408L3.05316 8.67926H7.29541V7.31479H3.05748L1.43049 1.55321L14.4162 7.99929L1.43049 14.4408H1.42618Z" fill="#0A0A0A"/>
</svg>

<svg xmlns="http://www.w3.org/2000/svg" width="16" height="16" fill="none"><path fill="#0a0a0a" d="M15.383 6.98 1.543.111A1.02 1.02 0 0 0 .377.275a1.16 1.16 0 0 0-.332 1.183l1.852 6.546L.049 14.54c-.125.435 0 .888.333 1.183.158.143.352.236.559.265s.417-.004.606-.098l13.836-6.858c.38-.19.617-.58.617-1.025a1.13 1.13 0 0 0-.617-1.024zM1.426 14.44l1.627-5.76h4.242V7.314H3.057L1.43 1.553 14.416 8 1.43 14.441z"/></svg>
